X:1
T:Mélodie
T:Mélodie
T:Mélodie
T:from "3 Mélodies" Op. 4, No. 2 originally for Piano solo, arr. for Flute and Harp 
T:Fanny (Mendelsohn)  Hensel (1805-1847)l
T:Arrangement by Felix Scharpf
T:twoflutes 2019 / https://commons.wikimedia.org/wiki/File:Fannymendelssohn-improved.jpg
T:twoflutes 2019 / https://commons.wikimedia.org/wiki/File:Fannymendelssohn-improved.jpg
T:twoflutes 2019 / https://commons.wikimedia.org/wiki/File:Fannymendelssohn-improved.jpg
T:twoflutes 2019 / https://commons.wikimedia.org/wiki/File:Fannymendelssohn-improved.jpg
C:Fanny Hensel
Z:twoflutes 2019 / https://commons.wikimedia.org/wiki/File:Fannymendelssohn-improved.jpg
%%score 1 { 2 | 3 }
L:1/8
Q:3/8=60
M:6/8
K:E
V:1 treble nm="Flöte"
V:2 treble nm="Harfe"
V:3 bass 
V:1
!p!"^Allegretto" (G | e2 f gde | c3 e3) | (A!<(!Bc) (cde | e3!<)! d2 c |!>(! ^B2 d fed!>)! | %6
 g3 c3) | (f3 c2 d) |!>(! e6!>)! |!<(! (efg aef!<)! | g3 c3) |!>(! (e3 d2 g | c6)!>)! | %13
 (c=de fga) | (a3 e3) | (c=de fga | e3- e2) f | (=gfe gfe | d3 f3) |!>(! (a3 g2 f | ^e3 =e3)!>)! | %21
 (=ded afd | =d3 c3) |!>(! (c^Bc ged | c3 d2)!>)!!<(! G | (e2 f gde | c3 e3)!<)! | (ABc) (cde) | %28
!>(! (e3 d2 c | ^B2)!>)! d (fed | g3 c3) | (f3 c2 d | e3- e2) e | (efg aef | g3 c3) | (e3 d2) g | %36
 (c2 d e2 f) |!>(! (gef[Q:3/8=40]"_poco ritard." gc'[Q:3/8=30]^b |!pp! !fermata!c'3)!>)! z3 |] %39
V:2
 z | z2 c/G/ z2 ^B/G/ | z2 A/E/ z2 G/E/ | z2 F/C/ z2 G/E/ | z2 ^^F/D/ z2 F/D/ | z2 G/D/ z2 A/F/ | %6
 z2 ^B/G/ z2 ^A/F/ | z2 =A/F/ z2 A/F/ | z2 G/E/ z2 G/E/ | z2 c/A/ z2 c/A/ | z2 G/E/ z2 A/E/ | %11
 z2 ^A/E/ z2 G/F/ | z2 G/E/ z2 G/E/ | z2 A/E/ z2 =d/A/ | z2 c/A/ z2 c/A/ | z2 c/A/ z2 =d/A/ | %16
 z2 c/A/ z2 c/A/ | z2 c/=G/ z2 c/G/ | z2 B/F/ z2 B/F/ | z2 d/A/ z2 d/A/ | z2 G/^E/ z2 G/=E/ | %21
 z2 F/A/ z2 F/A/ | z2 E/A/ z2 E/A/ | z2 E/G/ z2 E/G/ | z2 E/^^F/ z2 D/^F/ | E2 c/G/ z2 ^B/G/ | %26
 z2 A/E/ z2 G/E/ | z2 F/C/ z2 G/E/ | z2 ^^F/D/ z2 F/D/ | z2 G/D/ z2 A/F/ | z2 B/G/ z2 ^A/F/ | %31
 z2 A/F/ z2 A/F/ | z2 G/E/ z2 G/E/ | z2 c/A/ z2 c/A/ | z2 G/E/ z2 A/E/ | z2 ^A/E/ z2 G/F/ | %36
 z2 G/E/ z2 A/F/ | z2 c/G/ z2 g/c/ | z6 |] %39
V:3
 z | C,C/E/ z G,,^B,/F/ z | A,,A,/C/ z E,,G,/B,/ z | F,,F,/A,/ z E,,G,/C/ z | %4
 D,,^A,/C/ z D,,A,/C/ z | G,,G,/^B,/ z F,,B,/D/ z | ^E,,G,/C/ z F,,^A,/C/ z | %7
 A,,A,/C/ z F,,A,/C/ z | C,G,/C/ z B,,B,/=D/ z | A,,C/E/ z A,,C/E/ z | E,,G,/C/ z F,,A,/C/ z | %11
 ^^F,,^^F,/C/ z G,,^B,/D/ z | [C,,C,]G,/C/ z C,G,/C/ z | A,,A,/C/ z A,,=D/F/ z | %14
 A,,C/E/ z A,,C/E/ z | A,,C/E/ z =D,,=D/=F/ z | A,,C/E/ z A,,C/E/ z | ^A,,C/E/ z A,,C/E/ z | %18
 B,,B,/D/ z B,,B,/D/ z | ^B,,D/F/ z B,,D/F/ z | C,G,/C/ z C,G,/C/ z | F,,A,/=D/ z F,,A,/D/ z | %22
 =G,,=G,/A,/ z G,,G,/A,/ z | G,,G,/C/ z G,,G,/C/ z | G,,G,/^A,/ z G,,G,/^B,/ z | %25
 [C,,C,]C/E/ z G,,^B,/F/ z | A,,A,/C/ z E,,G,/B,/ z | F,,F,/A,/ z E,,E,/G,/ z | %28
 D,,^A,/C/ z D,,A,/C/ z | G,,G,/^B,/ z F,,B,/D/ z | ^E,,G,/C/ z F,,^A,/C/ z | %31
 A,,A,/C/ z F,,A,/C/ z | C,G,/C/ z B,,B,/=D/ z | A,,C/E/ z A,,C/E/ z | E,,G,/C/ z F,,A,/C/ z | %35
 =G,,^A,/C/ z ^G,,^B,/D/ z | C,,G,/C/ z C,A,/C/ z | C,,C/E/ z E,C/E/ z | !fermata![C,,C]3 z3 |] %39

